setcps (80/60/4)

d1 $ sound "bd:2*2 ~ bd:2 ~ ~ bd:2 ~ ~"

d4 $ sound "bass3:2*2 ~ bass3:2 ~ ~ bass3:2 ~ ~" # room 0.9 # delay 0.8 # lpf 1000

d2 $ sound "~ ~ ~ cp:2 ~ ~ ~ cp:2"

d3 "hh:8*16"

d5 $ up "1 4 5 5" # sound "arp:1 " # gain 1.0

d6 $ sound "dorkbot" # room 0.2

hush
